X: 4261
T: Bob MacPherson's
R: jig
M: 6/8
K: Dmajor
{g//}A|{G/d/c/}d3 {g//}A2 d|{g//}fdf {a/g/}a3|g{a//}fg {a//}ge{A//}e|{g//}cde {g//}Ae{g//}c|
{G/d/c/}d3 {g//}A2 d|{g//}fdf {a/g/}a2 f|g{g//}fg {g//}ge{A//}e|{g//}Ae{g//}c {G/d/c/}d2:|
A|{g//}fag {a/f/g/}f3|{g//}fga fd{c///}d|{g//}egf {g/e/f/}e2 A|{g//}Bgf {g/e/f/}ec{d//}A|
{g//}fag {a/f/g/}f3|{g//}fga fd{c//}d|g{a//}fg {a//}ge{A//}e|{g//}Ae{g//}c {G/d/c/}d2:|
B|{g//}Ad{c//}d {g/d/e/}dcd|{g//}A{d//}A{e//}A afd|{g//}G{d//}G{e//}G {g//}Gge|{g//}cac g{a//}ce|
{g//}Ad{c//}d {g/d/e/}dcd|{g//}A{d//}A{e//}A afd|g{a//}fg {a//}ge{A//}e|{g//}Ae{g//}c {G/d/c/}d2:|
d|a2 {g//}a fd{c//}d|{g//}d{c//}d{c//}d afd|{a//f//}g2 {f//}g {a//}ec{A//}c|{g//}c{G//}c{G//}c {g//}ec{G//}A|
[1 a2 {g//}a fd{c//}d|{g//}d{c//}d{c//}d afd|g{a//}fg {a//}ge{A//}e|{g//}Ae{g//}c {G/d/c/}d2:|
[2 {g//}Ad{c//}d {g/d/e/}dcd|{g//}A{d//}A{e//}A afd|g{a//}fg {a//}ge{A//}e|{g//}Ae{g//}c {G/d/c/}d2||

